img/dangers__phishing.svg

<svg width="52" height="52" viewBox="0 0 52 52" fill="none" xmlns="http://www.w3.org/2000/svg">
<g clip-path="url(#clip0)">
<path d="M33.6738 12.8694H35.2032V9.81062H33.6738V0H30.6151V9.81062H29.0857V12.8694H30.6151V16.8944L33.6738 15.9781V12.8694Z" fill="#304BAB"/>
<path d="M14.2122 31.3779L17.1424 30.5001L18.0203 33.4303L15.09 34.3082L14.2122 31.3779Z" fill="#304BAB"/>
<path d="M47.9538 37.4828L42.1182 18.0019C41.7838 16.8858 41.0349 15.9666 40.0092 15.4138C38.9835 14.8611 37.8039 14.7407 36.6879 15.0751L33.6739 15.978V19.4965C33.6739 23.713 30.2435 27.1434 26.027 27.1434V24.0847C28.5569 24.0847 30.6151 22.0264 30.6151 19.4965V16.8943L22.9683 19.1849V15.1885L24.405 15.8042L25.6098 12.9928L19.9094 10.5498V20.101L6.97347 23.9763C5.85734 24.3106 4.93818 25.0596 4.38537 26.0853C3.83255 27.111 3.71224 28.2904 4.04666 29.4066L9.88234 48.8875C10.2167 50.0036 10.9656 50.9227 11.9913 51.4755C12.6364 51.8233 13.3423 51.9999 14.0551 51.9999C14.4756 51.9999 14.8985 51.9384 15.3125 51.8143L45.027 42.9131C46.1432 42.5787 47.0623 41.8298 47.6151 40.8041C48.1679 39.7784 48.2883 38.5988 47.9538 37.4828ZM15.2387 45.4502L14.361 42.5201L17.291 41.6425L18.1688 44.5725L15.2387 45.4502ZM15.7107 37.313C15.4456 37.3924 15.1749 37.4318 14.9057 37.4318C14.4494 37.4318 13.9975 37.3187 13.5845 37.0961C12.9279 36.7423 12.4484 36.1538 12.2344 35.4393L11.2038 31.9991C10.9897 31.2845 11.0668 30.5294 11.4207 29.8728C11.7746 29.2163 12.363 28.7368 13.0775 28.5228L16.5178 27.4922C17.2322 27.2781 17.9875 27.3552 18.644 27.7091C19.3006 28.063 19.7801 28.6514 19.9941 29.3659L21.0247 32.8061C21.4665 34.2811 20.6261 35.8406 19.1511 36.2824L15.7107 37.313ZM21.099 43.6948L20.2212 40.7647L23.1513 39.8871L24.029 42.8171L21.099 43.6948ZM26.9591 41.9393L26.0814 39.0092L29.0114 38.1315L29.8892 41.0616L26.9591 41.9393ZM32.8194 40.1838L31.9416 37.2538L34.8717 36.3761L35.7494 39.3062L32.8194 40.1838ZM38.6796 38.4283L37.8019 35.4983L40.7319 34.6206L41.6097 37.5507L38.6796 38.4283Z" fill="#304BAB"/>
</g>
<defs>
<clipPath id="clip0">
<rect width="52" height="52" fill="white"/>
</clipPath>
</defs>
</svg>

<svg width="52" height="52" viewBox="0 0 52 52" fill="none" xmlns="http://www.w3.org/2000/svg"><g clip-path="url(#clip0)" fill="#304BAB"><path d="M33.674 12.87h1.53V9.81h-1.53V0h-3.059v9.81h-1.53v3.06h1.53v4.024l3.059-.916V12.87zM14.212 31.378l2.93-.878.878 2.93-2.93.878-.878-2.93z"/><path d="M47.954 37.483l-5.836-19.481a4.334 4.334 0 00-2.109-2.588 4.334 4.334 0 00-3.321-.339l-3.014.903v3.519c0 4.216-3.43 7.646-7.647 7.646v-3.058a4.593 4.593 0 004.588-4.588v-2.603l-7.647 2.29v-3.996l1.437.616 1.205-2.811-5.7-2.443v9.55L6.972 23.976a4.333 4.333 0 00-2.588 2.11 4.333 4.333 0 00-.338 3.32l5.835 19.482a4.333 4.333 0 002.11 2.587 4.339 4.339 0 003.32.34l29.715-8.902a4.333 4.333 0 002.588-2.109 4.333 4.333 0 00.339-3.321zM15.239 45.45l-.878-2.93 2.93-.878.878 2.93-2.93.878zm.472-8.137a2.778 2.778 0 01-2.126-.217 2.774 2.774 0 01-1.35-1.657L11.203 32a2.774 2.774 0 01.217-2.126 2.774 2.774 0 011.657-1.35l3.44-1.03a2.774 2.774 0 012.126.216 2.774 2.774 0 011.35 1.657l1.03 3.44a2.796 2.796 0 01-1.873 3.476l-3.44 1.031zm5.388 6.382l-.878-2.93 2.93-.878.878 2.93-2.93.878zm5.86-1.756l-.878-2.93 2.93-.877.878 2.93-2.93.877zm5.86-1.755l-.877-2.93 2.93-.878.877 2.93-2.93.878zm5.86-1.756l-.877-2.93 2.93-.877.878 2.93-2.93.877z"/></g><defs><clipPath id="clip0"><path fill="#fff" d="M0 0h52v52H0z"/></clipPath></defs></svg>
